assets/spark/icons/Card.svg

<svg viewBox="0 0 24 24" xmlns="http://www.w3.org/2000/svg">
    <path d="M22.3015 20H1.69757C0.761492 20 0 19.2394 0 18.3044V5.69563C0 4.76062 0.761492 4 1.69757 4H22.3015C23.2376 4 23.9991 4.76062 23.9991 5.69563V18.3034C23.9991 19.2384 23.2376 20 22.3015 20ZM1.69757 4.78845C1.19703 4.78845 0.789351 5.19566 0.789351 5.69563V18.3034C0.789351 18.8034 1.19703 19.2106 1.69757 19.2106H22.3015C22.802 19.2106 23.2097 18.8034 23.2097 18.3034V5.69563C23.2097 5.19566 22.802 4.78845 22.3015 4.78845H1.69757Z"/><path d="M15.2317 15.1895H3.01625C2.79802 15.1895 2.62158 15.0133 2.62158 14.7953 2.62158 14.5773 2.79802 14.4011 3.01625 14.4011H15.2317C15.4499 14.4011 15.6264 14.5773 15.6264 14.7953 15.6264 15.0133 15.4499 15.1895 15.2317 15.1895ZM10.5885 17.1171H3.03297C2.82681 17.1171 2.64293 16.9668 2.62343 16.7618 2.60115 16.5262 2.78595 16.3286 3.01625 16.3286H10.568C10.776 16.3286 10.9636 16.4807 10.9813 16.6876 11.0017 16.9213 10.8178 17.1171 10.5885 17.1171ZM23.6146 6.88109H.144869V9.66386H23.6146V6.88109Z"/>
</svg>

<svg viewBox="0 0 24 24" xmlns="http://www.w3.org/2000/svg">
  <path d="m22.3,20H1.7C.76,20,0,19.24,0,18.3V5.7C0,4.76.76,4,1.7,4h20.6c.94,0,1.7.76,1.7,1.7v12.61c0,.93-.76,1.7-1.7,1.7ZM1.7,4.79c-.5,0-.91.41-.91.91v12.61c0,.5.41.91.91.91h20.6c.5,0,.91-.41.91-.91V5.7c0-.5-.41-.91-.91-.91H1.7Z"/>
  <path d="m15.23,15.19H3.02c-.22,0-.39-.18-.39-.39s.18-.39.39-.39h12.22c.22,0,.39.18.39.39s-.18.39-.39.39Zm-4.64,1.93H3.03c-.21,0-.39-.15-.41-.36-.02-.24.16-.43.39-.43h7.55c.21,0,.4.15.41.36.02.23-.16.43-.39.43Zm13.03-10.24H.15v2.78h23.47v-2.78Z"/>
</svg>
